assets/stickers/emoticons/stickers/imgly_sticker_emoticons_alien.svg

<svg height="58" viewBox="0 0 62 58" width="62" xmlns="http://www.w3.org/2000/svg"><g fill="none"><path d="m61.3 34.5c0 13-11.9 23.5-30.3 23.5s-30.3-10.5-30.3-23.5 11.9-32.5 30.3-32.5 30.3 19.5 30.3 32.5z" fill="#109da0"/><path d="m61.3 34.5c0 13-11.9 19.5-30.3 19.5s-30.3-6.5-30.3-19.5 11.9-34.5 30.3-34.5 30.3 21.5 30.3 34.5z" fill="#109da0"/><path d="m31 0c18.4 0 30.3 21.5 30.3 34.5s-11.9 19.5-30.3 19.5" fill="#19bca4"/><path d="m61.3 34.5c0 13-11.9 19.5-30.3 19.5s-30.3-6.5-30.3-19.5 11.9-32.5 30.3-32.5 30.3 19.5 30.3 32.5z" fill="#19bca4"/><path d="m.7 34.5c0-13 11.9-32.5 30.3-32.5" fill="#28ddbf"/><path d="m31 2c18.4 0 30.3 19.5 30.3 32.5s-11.9 23.5-30.3 23.5" fill="#109da0"/><path d="m31 2c18.4 0 30.3 19.5 30.3 32.5" fill="#0c838c"/><g transform="translate(9 31)"><path d="m17.4 3.1c0 1.3-3.8 1.8-8.6 1.8-4.7 0-8.6-.5-8.6-1.8s3.8-2.4 8.6-2.4 8.6 1.1 8.6 2.4z" fill="#28ddbf"/><path d="m43.8 3.1c0 1.3-3.8 1.8-8.6 1.8-4.7 0-8.6-.5-8.6-1.8s3.8-2.4 8.6-2.4c4.7 0 8.6 1.1 8.6 2.4z" fill="#19bca4"/></g><g fill="#109da0"><ellipse cx="9.3" cy="31.5" rx="1" ry="1"/><ellipse cx="4.8" cy="33.5" rx="1.1" ry="1.1"/><circle cx="7.8" cy="29.5" r="1"/><circle cx="12.4" cy="31.3" r="1"/></g><circle cx="51.6" cy="31.8" fill="#19bca4" r="1"/><circle cx="54.1" cy="33.2" fill="#19bca4" r="1"/><circle cx="55.5" cy="36.1" fill="#19bca4" r="1"/><ellipse cx="55.8" cy="29.5" fill="#19bca4" rx="1" ry="1"/><circle cx="8.3" cy="35.5" fill="#109da0" r="1"/><circle cx="9.1" cy="27.1" fill="#109da0" r="1"/><ellipse cx="3.8" cy="13.3" fill="#19bca4" rx="1.1" ry="1.1"/><ellipse cx="7" cy="9.8" fill="#19bca4" rx="1" ry="1"/><circle cx="58.2" cy="15.7" fill="#109da0" r="1"/><ellipse cx="57.4" cy="12.8" fill="#19bca4" rx="1" ry="1"/><path d="m60.5 13.3c0 .3-.2.5-.5.5s-.5-.2-.5-.5.2-.5.5-.5c.2 0 .5.3.5.5z" fill="#19bca4"/><ellipse cx="5" cy="16.3" fill="#109da0" rx="1" ry="1"/><path d="m38.4 36.8c0 2.6-3.3 8.1-7.4 8.1s-7.4-5.5-7.4-8.1" fill="#109da0"/><path d="m34 40h-6c-.6 0-1-.4-1-1s.4-1 1-1h6c.6 0 1 .4 1 1s-.4 1-1 1z" fill="#02243e"/><g transform="translate(9 16)"><path d="m17.4 15c-2.1 3-7.2 3.1-11.5.1-4.3-2.9-6.1-7.8-4.1-10.8 2.1-3 7.2-3.1 11.6-.1 4.2 2.9 6 7.8 4 10.8z" fill="#109da0"/><path d="m18.4 13.4c-2.1 3-7.2 3.1-11.6.1-4.3-2.9-6.1-7.8-4.1-10.8 2.1-3 7.2-3.1 11.5-.1 4.5 3 6.3 7.8 4.2 10.8z" fill="#1e4784"/><path d="m14.4 2.6c4.3 2.9 6.1 7.8 4.1 10.8-2.1 3-7.2 3.1-11.6.1" fill="#00233f"/></g><g transform="translate(33 16)"><path d="m2.6 15c2.1 3 7.2 3.1 11.5.1 4.3-2.9 6.1-7.8 4.1-10.8-2.1-3-7.2-3.1-11.6-.1-4.2 2.9-6 7.8-4 10.8z" fill="#19bca4"/><path d="m1.6 13.4c2.1 3 7.2 3.1 11.6.1 4.3-2.9 6.1-7.8 4.1-10.8-2.1-3-7.2-3.1-11.6-.1s-6.2 7.8-4.1 10.8z" fill="#1e4784"/><path d="m5.6 2.6c-4.3 2.9-6.1 7.8-4.1 10.8 2.1 3 7.2 3.1 11.6.1" fill="#00233f"/></g><path d="m28.202416 10.058896h5.499947v5.499947h-5.499947z" fill="#28ddbf" transform="matrix(.70720678 .70700677 -.70700677 .70720678 18.118608 -18.133199)"/><g fill="#28ddbf"><circle cx="31" cy="42.4" r="1"/><circle cx="31" cy="46.5" r="1"/><circle cx="31" cy="50.5" r="1"/></g></g></svg>

<?xml version="1.0" encoding="UTF-8"?>
<svg width="62px" height="58px" viewBox="0 0 62 58" version="1.1" xmlns="http://www.w3.org/2000/svg" xmlns:xlink="http://www.w3.org/1999/xlink">
    <!-- Generator: Sketch 43.1 (39012) - http://www.bohemiancoding.com/sketch -->
    <title>imgly_sticker_emoticons_alien</title>
    <desc>Created with Sketch.</desc>
    <defs></defs>
    <g id="Page-1" stroke="none" stroke-width="1" fill="none" fill-rule="evenodd">
        <g id="alien" fill-rule="nonzero">
            <g id="Group">
                <path d="M61.3,34.5 C61.3,47.5 49.4,58 31,58 C12.6,58 0.7,47.5 0.7,34.5 C0.7,21.5 12.6,2 31,2 C49.4,2 61.3,21.5 61.3,34.5 Z" id="Shape" fill="#109DA0"></path>
                <path d="M61.3,34.5 C61.3,47.5 49.4,54 31,54 C12.6,54 0.7,47.5 0.7,34.5 C0.7,21.5 12.6,0 31,0 C49.4,0 61.3,21.5 61.3,34.5 Z" id="Shape" fill="#109DA0"></path>
                <path d="M31,0 C49.4,0 61.3,21.5 61.3,34.5 C61.3,47.5 49.4,54 31,54" id="Shape" fill="#19BCA4"></path>
                <path d="M61.3,34.5 C61.3,47.5 49.4,54 31,54 C12.6,54 0.7,47.5 0.7,34.5 C0.7,21.5 12.6,2 31,2 C49.4,2 61.3,21.5 61.3,34.5 Z" id="Shape" fill="#19BCA4"></path>
                <path d="M0.7,34.5 C0.7,21.5 12.6,2 31,2" id="Shape" fill="#28DDBF"></path>
                <path d="M31,2 C49.4,2 61.3,21.5 61.3,34.5 C61.3,47.5 49.4,58 31,58" id="Shape" fill="#109DA0"></path>
                <path d="M31,2 C49.4,2 61.3,21.5 61.3,34.5" id="Shape" fill="#0C838C"></path>
                <g transform="translate(9.000000, 31.000000)" id="Shape">
                    <path d="M17.4,3.1 C17.4,4.4 13.6,4.9 8.8,4.9 C4.1,4.9 0.2,4.4 0.2,3.1 C0.2,1.8 4,0.7 8.8,0.7 C13.6,0.7 17.4,1.8 17.4,3.1 Z" fill="#28DDBF"></path>
                    <path d="M43.8,3.1 C43.8,4.4 40,4.9 35.2,4.9 C30.5,4.9 26.6,4.4 26.6,3.1 C26.6,1.8 30.4,0.7 35.2,0.7 C39.9,0.7 43.8,1.8 43.8,3.1 Z" fill="#19BCA4"></path>
                </g>
                <ellipse id="Oval" fill="#109DA0" cx="9.3" cy="31.5" rx="1" ry="1"></ellipse>
                <ellipse id="Oval" fill="#109DA0" cx="4.8" cy="33.5" rx="1.1" ry="1.1"></ellipse>
                <circle id="Oval" fill="#109DA0" cx="7.8" cy="29.5" r="1"></circle>
                <circle id="Oval" fill="#109DA0" cx="12.4" cy="31.3" r="1"></circle>
                <circle id="Oval" fill="#19BCA4" cx="51.6" cy="31.8" r="1"></circle>
                <circle id="Oval" fill="#19BCA4" cx="54.1" cy="33.2" r="1"></circle>
                <circle id="Oval" fill="#19BCA4" cx="55.5" cy="36.1" r="1"></circle>
                <ellipse id="Oval" fill="#19BCA4" cx="55.8" cy="29.5" rx="1" ry="1"></ellipse>
                <circle id="Oval" fill="#109DA0" cx="8.3" cy="35.5" r="1"></circle>
                <circle id="Oval" fill="#109DA0" cx="9.1" cy="27.1" r="1"></circle>
                <ellipse id="Oval" fill="#19BCA4" cx="3.8" cy="13.3" rx="1.1" ry="1.1"></ellipse>
                <ellipse id="Oval" fill="#19BCA4" cx="7" cy="9.8" rx="1" ry="1"></ellipse>
                <circle id="Oval" fill="#109DA0" cx="58.2" cy="15.7" r="1"></circle>
                <ellipse id="Oval" fill="#19BCA4" cx="57.4" cy="12.8" rx="1" ry="1"></ellipse>
                <path d="M60.5,13.3 C60.5,13.6 60.3,13.8 60,13.8 C59.7,13.8 59.5,13.6 59.5,13.3 C59.5,13 59.7,12.8 60,12.8 C60.2,12.8 60.5,13.1 60.5,13.3 Z" id="Shape" fill="#19BCA4"></path>
                <ellipse id="Oval" fill="#109DA0" cx="5" cy="16.3" rx="1" ry="1"></ellipse>
                <path d="M38.4,36.8 C38.4,39.4 35.1,44.9 31,44.9 C26.9,44.9 23.6,39.4 23.6,36.8" id="Shape" fill="#109DA0"></path>
            </g>
            <path d="M34,40 L28,40 C27.4,40 27,39.6 27,39 C27,38.4 27.4,38 28,38 L34,38 C34.6,38 35,38.4 35,39 C35,39.6 34.6,40 34,40 Z" id="Shape" fill="#02243E"></path>
            <g id="Group" transform="translate(9.000000, 16.000000)">
                <g id="Shape">
                    <path d="M17.4,15 C15.3,18 10.2,18.1 5.9,15.1 C1.6,12.2 -0.2,7.3 1.8,4.3 C3.9,1.3 9,1.2 13.4,4.2 C17.6,7.1 19.4,12 17.4,15 Z" fill="#109DA0"></path>
                    <path d="M18.4,13.4 C16.3,16.4 11.2,16.5 6.8,13.5 C2.5,10.6 0.7,5.7 2.7,2.7 C4.8,-0.3 9.9,-0.4 14.2,2.6 C18.7,5.6 20.5,10.4 18.4,13.4 Z" fill="#1E4784"></path>
                    <path d="M14.4,2.6 C18.7,5.5 20.5,10.4 18.5,13.4 C16.4,16.4 11.3,16.5 6.9,13.5" fill="#00233F"></path>
                </g>
                <g transform="translate(24.000000, 0.000000)" id="Shape">
                    <path d="M2.6,15 C4.7,18 9.8,18.1 14.1,15.1 C18.4,12.2 20.2,7.3 18.2,4.3 C16.1,1.3 11,1.2 6.6,4.2 C2.4,7.1 0.6,12 2.6,15 Z" fill="#19BCA4"></path>
                    <path d="M1.6,13.4 C3.7,16.4 8.8,16.5 13.2,13.5 C17.5,10.6 19.3,5.7 17.3,2.7 C15.2,-0.3 10.1,-0.4 5.7,2.6 C1.3,5.6 -0.5,10.4 1.6,13.4 Z" fill="#1E4784"></path>
                    <path d="M5.6,2.6 C1.3,5.5 -0.5,10.4 1.5,13.4 C3.6,16.4 8.7,16.5 13.1,13.5" fill="#00233F"></path>
                </g>
            </g>
            <rect id="Rectangle-path" fill="#28DDBF" transform="translate(30.952390, 12.808870) rotate(44.991897) translate(-30.952390, -12.808870) " x="28.2024163" y="10.0588963" width="5.49994731" height="5.49994731"></rect>
            <g id="Group" transform="translate(30.000000, 41.000000)" fill="#28DDBF">
                <circle id="Oval" cx="1" cy="1.4" r="1"></circle>
                <circle id="Oval" cx="1" cy="5.5" r="1"></circle>
                <circle id="Oval" cx="1" cy="9.5" r="1"></circle>
            </g>
        </g>
    </g>
</svg>
